packages/foundations/assets/icons/functional/images/maps/location_arrow_north_32_filled.svg

<svg width="32" height="32" viewBox="0 0 32 32" fill="none" xmlns="http://www.w3.org/2000/svg">
<g clip-path="url(#clip0_2213_4838)">
<path fill-rule="evenodd" clip-rule="evenodd" d="M16 8.59566C16.2892 8.59915 16.744 8.75377 16.9412 9.27765L23.9229 27.8269C24.1558 28.4456 23.843 29.136 23.2243 29.3689C22.7845 29.5344 22.2885 29.4273 21.9562 29.095L16.1412 23.2801C16.0633 23.2022 15.937 23.2022 15.8591 23.2801L10.0436 29.0956C9.57607 29.5631 8.81813 29.5631 8.35065 29.0956C8.01836 28.7633 7.91123 28.2673 8.07674 27.8275L15.0663 9.25407C15.248 8.77137 15.7108 8.59252 16 8.59566ZM16 2.55379C16.5128 2.55379 16.9984 2.94383 17 3.55379V6.19173C17 6.74402 16.5523 7.19173 16 7.19173C15.4872 7.19173 15.0014 6.76197 15 6.19173V3.55379C15 3.00151 15.4477 2.55379 16 2.55379Z" fill="#1A1C1F"/>
</g>
<defs>
<clipPath id="clip0_2213_4838">
<rect width="32" height="32" fill="white"/>
</clipPath>
</defs>
</svg>

<svg xmlns="http://www.w3.org/2000/svg" width="32" height="32" fill="none"><g clip-path="url(#a)"><path fill="#1A1C1F" fill-rule="evenodd" d="M16 8.596c.29.003.744.158.941.682l6.982 18.549a1.197 1.197 0 0 1-1.967 1.268l-5.815-5.815a.2.2 0 0 0-.282 0l-5.815 5.816a1.197 1.197 0 0 1-1.967-1.268l6.99-18.574c.181-.483.644-.661.933-.658m0-6.042c.513 0 .998.39 1 1v2.638a1 1 0 0 1-1 1c-.513 0-.999-.43-1-1V3.554a1 1 0 0 1 1-1" clip-rule="evenodd"/></g><defs><clipPath id="a"><path fill="#fff" d="M0 0h32v32H0z"/></clipPath></defs></svg>
